icons/1_Primary/TETR.IO.svg

<svg xmlns="http://www.w3.org/2000/svg" viewBox="0 0 1024 1024">
   <circle cx="512" cy="512" r="512"/>
   <path d="M166.63 435.25h76.75v25.58h-25.59v127.92h-25.58V460.83h-25.58Zm434.91 127.92h51.17V512h-51.17Zm230.25-102.34v-25.58h-51.17V512h25.58v-51.17ZM294.54 512h51.17v-25.58h-51.17v-25.59h51.17v-25.58H269v127.92h102.29v-25.59h-76.75Zm76.75-51.17h25.58v127.92h25.58V460.83H448v-25.58h-76.71Zm179.08 25.58h-51.16v-25.58h51.17v-25.58h-76.75v153.5h25.58V512h25.58v76.75H576v-25.58h-25.63V512H576v-51.17h-25.63Zm127.92-25.58h25.58V512h-25.58v25.58H755V512h-25.54v-51.17H755v-25.58h-76.71Zm153.5 0V512h-25.58v25.58h51.17v-76.75Z" style="fill:#fff"/>
</svg>

<svg width="1024" height="1024" viewBox="0 0 1024 1024" fill="none" xmlns="http://www.w3.org/2000/svg">
<g clip-path="url(#clip0_2_3627)">
<path d="M512 1024C794.77 1024 1024 794.77 1024 512C1024 229.23 794.77 0 512 0C229.23 0 0 229.23 0 512C0 794.77 229.23 1024 512 1024Z" fill="#56595B"/>
<path d="M166.63 435.25H243.38V460.83H217.79V588.75H192.21V460.83H166.63V435.25ZM601.54 563.17H652.71V512H601.54V563.17ZM831.79 460.83V435.25H780.62V512H806.2V460.83H831.79ZM294.54 512H345.71V486.42H294.54V460.83H345.71V435.25H269V563.17H371.29V537.58H294.54V512ZM371.29 460.83H396.87V588.75H422.45V460.83H448V435.25H371.29V460.83ZM550.37 486.41H499.21V460.83H550.38V435.25H473.63V588.75H499.21V512H524.79V588.75H576V563.17H550.37V512H576V460.83H550.37V486.41ZM678.29 460.83H703.87V512H678.29V537.58H755V512H729.46V460.83H755V435.25H678.29V460.83ZM831.79 460.83V512H806.21V537.58H857.38V460.83H831.79Z" fill="white"/>
</g>
<defs>
<clipPath id="clip0_2_3627">
<rect width="1024" height="1024" fill="white"/>
</clipPath>
</defs>
</svg>
